X:1
T:Maggie in the Snow
C:John Goodin  2000  
M:C
L:1/4
K:A
"E7" d B/A/ B2 | d B/A/ =G E | d B/A/Be | d/B/ AB2 |
"E7" d B/A/ B2 | d B/A/ =G E/F/ | "G"=G=G "D"F/E/D| "A"E4:|
"A"c2c2 | c/B/A/F/ E E/F/ | "G"=G=G A/G/ E| "D"F/E/ D "E"E2 |
"A"c2c2 | c/B/A/F/ E E/F/ | "G"=G2 "D"A2 |1"E"B4 :|2"B"B4|]
